!!!COM: Anon.
!!!OTL: Dog Society Serenade (b)
!!!MPN: Maisuiaksis [Holding Eagle]
!!!ODT: <1918//
!!!MLC: Fort Berthold Reservation, North Dakota, United States of America
!! Song was recorded during either the summer of 1912, 1915, or 1918.
!!!AGN: monody
!!!AST: Mandan and Hidatsa Men's Dog Society
!!!AMT: irregular
!!!RWG: Transcribed pitches, durations, and meters are only approximate.
!! Drum Tempo: MM88
!! Drum-rhythm: (8 8) (8 8) (8 8) (8 8)
**kern
*ICvox
*Imale
*clefF4
*k[b-e-]
*M3/4
*MM88
8.d
16d
=1
8.g
16g
8.g
16f
4d
*M2/4
=2
(12g
12d
12g)
8g
16f#
16f#
*M3/4
=3
8.d
16d
4B-;
8.G
16G
=4
8.B-
16G
8.G
16F#
8.D
16D
=5
[8G
16G]
32G
32B-
8.G
16F#
8.D
16C#
*M2/4
=6
2D
=7
4D
4r
==
*-
!!!CNT: Hidatsa
!!!TXO: Hidatsa
!!!OCY: United States
!!!OCL: Frances Densmore
!!!YOR: Frances Densmore, "Mandan and Hidatsa Music",
!!!YOR: Bulletin 80, page 136, No. 67
!!!PPR: Smithsonian Institution, Bureau of American Ethnology
!!!PPR: Government Printing Office
!!!PDT: 1923
!!!PPP: Washington, DC, United States of America
!!!YEC: Electronic Copyright 2000 David Huron
!!!YER: August 2000
!!!YEN: United States of America
!!!ENC: David Huron
!!!RDT: August 17, 2000
!!!EEV: Release 1.0
!!!AIN: tom, vox
